X:1
T:Caddo, CM
T:William Batchelder Bradbury, 1867
T:Caddo, CM
T:Public Domain
C:William Batchelder Bradbury, 1867
Z:Public Domain
%%score ( 1 2 ) ( 3 4 )
L:1/8
M:3/4
K:Ab
V:1 treble 
V:2 treble 
V:3 bass 
V:4 bass 
V:1
 [CE]2 | [CA]4 [Ec]2 | [Ee]4 [Ec]2 | ([DB]3 [CA]) ([Ec][DB]) | [CA]4 (AG) | [DF]4 [DA]2 | %6
 (B2 A2) [DF]2 | [CE]6- | [CE]4 [CE]2 | [CA]4 [Ec]2 | [Ee]4 [Ec]2 | (Bc) d2 [Ec]2 | %12
 [EB]4 ([Ec][DB]) | [CA]4 ([CA][DB]) | ([Ec]2 [CA]2) [DB]2 | [CA]6 |] %16
V:2
 x2 | x6 | x6 | x6 | x4 E2 | x6 | D4 x2 | x6 | x6 | x6 | x6 | E4 x2 | x6 | x6 | x6 | x6 |] %16
V:3
 [A,,A,]2 | [A,,A,]4 [A,,A,]2 | [A,,C]4 [A,,A,]2 | (G,3 A,) [E,G,]2 | [A,,A,]4 [C,A,]2 | %5
 [D,A,]4 [D,F,]2 | [D,F,]4 [D,A,]2 | [A,,A,]6- | [A,,A,]4 A,2 | A,4 A,2 | [A,C]4 A,2 | %11
 (G,A,) B,2 [E,A,]2 | [E,G,]4 [E,G,]2 | [F,A,]4 [F,A,]2 | (A,2 E,2) E,2 | [A,,E,]6 |] %16
V:4
 x2 | x6 | x6 | E,4 x2 | x6 | x6 | x6 | x6 | x6 | x6 | x6 | E,4 x2 | x6 | x6 | E,4 x2 | x6 |] %16

